assets/images/Expo/Features/muscle.svg

<svg width="56" height="56" viewBox="0 0 56 56" fill="none" xmlns="http://www.w3.org/2000/svg">
<circle cx="28" cy="28" r="28" fill="white"/>
<path d="M36.2484 15.6889C35.8338 14.9522 35.0431 14.4946 34.1847 14.4946H27.2488C25.9497 14.4946 24.8927 15.5516 24.8927 16.8507V19.9922C24.8927 21.2913 25.9497 22.3483 27.2488 22.3483H31.961C32.3941 22.3483 32.7464 22.7006 32.7464 23.1336V29.3031C30.4819 28.684 28.0948 28.6075 25.8001 29.0743C24.0517 27.4013 21.5755 26.7207 19.1027 27.339C16.6303 27.9572 14.5783 29.9748 13.991 32.486C13.486 34.6462 13.9783 36.8712 15.342 38.5906C16.7085 40.3135 18.7393 41.3017 20.9136 41.3017C31.166 41.3017 38.2629 37.406 40.1659 36.4543C40.4319 36.3212 40.6 36.0493 40.6 35.7518V32.3448C40.6 26.5063 39.0952 20.7467 36.2484 15.6889V15.6889ZM39.0293 35.2678C36.4778 36.553 30.0189 39.731 20.9136 39.731C19.2217 39.731 17.6395 38.9595 16.5726 37.6144C15.5087 36.273 15.1252 34.5341 15.5205 32.8436C15.9646 30.9442 17.5573 29.3444 19.4836 28.8627C21.0652 28.4672 22.6509 28.7377 23.9313 29.5828C23.3189 29.7932 22.7181 30.0446 22.1331 30.3371C21.7451 30.5311 21.5879 31.0028 21.7819 31.3908C21.9758 31.7787 22.4475 31.936 22.8355 31.742C26.5661 29.8767 31.0205 29.8766 34.7512 31.742C35.1398 31.9363 35.6113 31.778 35.8049 31.3908C35.9989 31.0028 35.8416 30.5311 35.4537 30.3371C35.0809 30.1507 34.7016 29.9813 34.3171 29.8282V23.1336C34.3171 21.8345 33.2602 20.7775 31.961 20.7775H31.1756V18.4214C31.1756 17.9877 30.824 17.6361 30.3903 17.6361H28.8196C28.3858 17.6361 28.0342 17.9877 28.0342 18.4214C28.0342 18.8552 28.3858 19.2068 28.8196 19.2068H29.6049V20.7775H27.2488C26.8158 20.7775 26.4635 20.4252 26.4635 19.9922V16.8507C26.4635 16.4177 26.8158 16.0654 27.2488 16.0654H34.1848C34.4766 16.0654 34.7428 16.2163 34.8796 16.4592C37.5944 21.2825 39.0293 26.7756 39.0293 32.3448V35.2678H39.0293Z" fill="#010107"/>
</svg>

<svg xmlns="http://www.w3.org/2000/svg" width="56" height="56" fill="none" viewBox="0 0 56 56"><circle cx="28" cy="28" r="28" fill="#fff"/><path fill="#010107" d="M36.248 15.689a2.365 2.365 0 0 0-2.063-1.194h-6.936a2.359 2.359 0 0 0-2.356 2.356v3.141c0 1.3 1.057 2.356 2.356 2.356h4.712c.433 0 .785.353.785.786v6.17a15.026 15.026 0 0 0-6.946-.23c-1.748-1.673-4.224-2.353-6.697-1.735-2.473.618-4.525 2.636-5.112 5.147a7.147 7.147 0 0 0 1.351 6.105 7.083 7.083 0 0 0 5.572 2.71c10.252 0 17.349-3.895 19.252-4.847a.786.786 0 0 0 .434-.702v-3.407a34.02 34.02 0 0 0-4.352-16.656zm2.781 19.579c-2.551 1.285-9.01 4.463-18.115 4.463a5.52 5.52 0 0 1-4.341-2.117 5.585 5.585 0 0 1-1.053-4.77c.445-1.9 2.037-3.5 3.964-3.981 1.581-.396 3.167-.125 4.447.72a14.74 14.74 0 0 0-1.798.754.785.785 0 1 0 .703 1.405 13.386 13.386 0 0 1 11.915 0 .785.785 0 0 0 .703-1.405 14.703 14.703 0 0 0-1.137-.509v-6.694c0-1.3-1.057-2.357-2.356-2.357h-.785v-2.356a.785.785 0 0 0-.786-.785h-1.57a.785.785 0 1 0 0 1.57h.785v1.572h-2.356a.786.786 0 0 1-.785-.786v-3.141c0-.433.352-.786.785-.786h6.936c.292 0 .558.151.695.394a32.447 32.447 0 0 1 4.15 15.886v2.923z"/></svg>
